images/6603729.svg

<?xml version="1.0" encoding="UTF-8"?>
<svg xmlns="http://www.w3.org/2000/svg" xmlns:xlink="http://www.w3.org/1999/xlink" width="300pt" height="300pt" viewBox="0 0 300 300" version="1.1">
<defs>
<g>
<symbol overflow="visible" id="glyph0-0">
<path style="stroke:none;" d="M 0.59375 2.125 L 0.59375 -8.46875 L 6.59375 -8.46875 L 6.59375 2.125 Z M 1.265625 1.453125 L 5.9375 1.453125 L 5.9375 -7.78125 L 1.265625 -7.78125 Z M 1.265625 1.453125 "/>
</symbol>
<symbol overflow="visible" id="glyph0-1">
<path style="stroke:none;" d="M 1.171875 -8.75 L 2.765625 -8.75 L 6.65625 -1.4375 L 6.65625 -8.75 L 7.796875 -8.75 L 7.796875 0 L 6.203125 0 L 2.328125 -7.3125 L 2.328125 0 L 1.171875 0 Z M 1.171875 -8.75 "/>
</symbol>
<symbol overflow="visible" id="glyph0-2">
<path style="stroke:none;" d="M 4.734375 -7.953125 C 3.867188 -7.953125 3.179688 -7.628906 2.671875 -6.984375 C 2.171875 -6.347656 1.921875 -5.472656 1.921875 -4.359375 C 1.921875 -3.265625 2.171875 -2.394531 2.671875 -1.75 C 3.179688 -1.113281 3.867188 -0.796875 4.734375 -0.796875 C 5.585938 -0.796875 6.265625 -1.113281 6.765625 -1.75 C 7.273438 -2.394531 7.53125 -3.265625 7.53125 -4.359375 C 7.53125 -5.472656 7.273438 -6.347656 6.765625 -6.984375 C 6.265625 -7.628906 5.585938 -7.953125 4.734375 -7.953125 Z M 4.734375 -8.90625 C 5.953125 -8.90625 6.925781 -8.492188 7.65625 -7.671875 C 8.394531 -6.847656 8.765625 -5.742188 8.765625 -4.359375 C 8.765625 -2.984375 8.394531 -1.882812 7.65625 -1.0625 C 6.925781 -0.238281 5.953125 0.171875 4.734375 0.171875 C 3.503906 0.171875 2.519531 -0.238281 1.78125 -1.0625 C 1.039062 -1.882812 0.671875 -2.984375 0.671875 -4.359375 C 0.671875 -5.742188 1.039062 -6.847656 1.78125 -7.671875 C 2.519531 -8.492188 3.503906 -8.90625 4.734375 -8.90625 Z M 4.734375 -8.90625 "/>
</symbol>
<symbol overflow="visible" id="glyph0-3">
<path style="stroke:none;" d="M 1.171875 -8.75 L 2.359375 -8.75 L 2.359375 -5.15625 L 6.65625 -5.15625 L 6.65625 -8.75 L 7.84375 -8.75 L 7.84375 0 L 6.65625 0 L 6.65625 -4.171875 L 2.359375 -4.171875 L 2.359375 0 L 1.171875 0 Z M 1.171875 -8.75 "/>
</symbol>
<symbol overflow="visible" id="glyph0-4">
<path style="stroke:none;" d="M 2.359375 -4.171875 L 2.359375 -0.96875 L 4.265625 -0.96875 C 4.898438 -0.96875 5.367188 -1.097656 5.671875 -1.359375 C 5.984375 -1.628906 6.140625 -2.035156 6.140625 -2.578125 C 6.140625 -3.128906 5.984375 -3.53125 5.671875 -3.78125 C 5.367188 -4.039062 4.898438 -4.171875 4.265625 -4.171875 Z M 2.359375 -7.78125 L 2.359375 -5.140625 L 4.109375 -5.140625 C 4.691406 -5.140625 5.125 -5.25 5.40625 -5.46875 C 5.6875 -5.6875 5.828125 -6.015625 5.828125 -6.453125 C 5.828125 -6.898438 5.6875 -7.234375 5.40625 -7.453125 C 5.125 -7.671875 4.691406 -7.78125 4.109375 -7.78125 Z M 1.171875 -8.75 L 4.203125 -8.75 C 5.109375 -8.75 5.800781 -8.5625 6.28125 -8.1875 C 6.769531 -7.8125 7.015625 -7.28125 7.015625 -6.59375 C 7.015625 -6.050781 6.890625 -5.617188 6.640625 -5.296875 C 6.390625 -4.984375 6.023438 -4.789062 5.546875 -4.71875 C 6.128906 -4.59375 6.582031 -4.332031 6.90625 -3.9375 C 7.226562 -3.539062 7.390625 -3.046875 7.390625 -2.453125 C 7.390625 -1.671875 7.125 -1.066406 6.59375 -0.640625 C 6.0625 -0.210938 5.300781 0 4.3125 0 L 1.171875 0 Z M 1.171875 -8.75 "/>
</symbol>
<symbol overflow="visible" id="glyph0-5">
<path style="stroke:none;" d="M 4.9375 -5.5625 C 4.8125 -5.625 4.675781 -5.671875 4.53125 -5.703125 C 4.394531 -5.742188 4.238281 -5.765625 4.0625 -5.765625 C 3.457031 -5.765625 2.988281 -5.566406 2.65625 -5.171875 C 2.332031 -4.773438 2.171875 -4.203125 2.171875 -3.453125 L 2.171875 0 L 1.09375 0 L 1.09375 -6.5625 L 2.171875 -6.5625 L 2.171875 -5.546875 C 2.398438 -5.941406 2.695312 -6.234375 3.0625 -6.421875 C 3.425781 -6.617188 3.867188 -6.71875 4.390625 -6.71875 C 4.460938 -6.71875 4.539062 -6.710938 4.625 -6.703125 C 4.71875 -6.691406 4.816406 -6.675781 4.921875 -6.65625 Z M 4.9375 -5.5625 "/>
</symbol>
</g>
</defs>
<g id="surface43041">
<rect x="0" y="0" width="300" height="300" style="fill:rgb(100%,100%,100%);fill-opacity:1;stroke:none;"/>
<path style="fill:none;stroke-width:1.2;stroke-linecap:butt;stroke-linejoin:miter;stroke:rgb(0%,0%,0%);stroke-opacity:1;stroke-miterlimit:10;" d="M 36.421875 208.527344 L 65.355469 198.550781 "/>
<path style="fill:none;stroke-width:1.2;stroke-linecap:butt;stroke-linejoin:miter;stroke:rgb(0%,0%,0%);stroke-opacity:1;stroke-miterlimit:10;" d="M 34.078125 201.71875 L 63.007812 191.742188 "/>
<path style="fill:none;stroke-width:1.2;stroke-linecap:butt;stroke-linejoin:miter;stroke:rgb(0%,0%,0%);stroke-opacity:1;stroke-miterlimit:10;" d="M 64.183594 195.144531 L 87.289062 215.214844 "/>
<path style="fill:none;stroke-width:1.2;stroke-linecap:butt;stroke-linejoin:miter;stroke:rgb(0%,0%,0%);stroke-opacity:1;stroke-miterlimit:10;" d="M 87.289062 215.214844 L 101.753906 210.226562 "/>
<path style="fill:none;stroke-width:1.2;stroke-linecap:butt;stroke-linejoin:miter;stroke:rgb(0%,0%,100%);stroke-opacity:1;stroke-miterlimit:10;" d="M 101.753906 210.226562 L 116.222656 205.238281 "/>
<path style="fill:none;stroke-width:1.2;stroke-linecap:butt;stroke-linejoin:miter;stroke:rgb(0%,0%,100%);stroke-opacity:1;stroke-miterlimit:10;" d="M 116.222656 205.238281 L 126.992188 216.105469 "/>
<path style="fill:none;stroke-width:1.2;stroke-linecap:butt;stroke-linejoin:miter;stroke:rgb(0%,0%,0%);stroke-opacity:1;stroke-miterlimit:10;" d="M 126.992188 216.105469 L 137.765625 226.976562 "/>
<path style="fill:none;stroke-width:1.2;stroke-linecap:butt;stroke-linejoin:miter;stroke:rgb(0%,0%,0%);stroke-opacity:1;stroke-miterlimit:10;" d="M 119.785156 174.839844 L 118.003906 190.039062 "/>
<path style="fill:none;stroke-width:1.2;stroke-linecap:butt;stroke-linejoin:miter;stroke:rgb(0%,0%,100%);stroke-opacity:1;stroke-miterlimit:10;" d="M 118.003906 190.039062 L 116.222656 205.238281 "/>
<path style=" stroke:none;fill-rule:nonzero;fill:rgb(100%,100%,100%);fill-opacity:1;" d="M 112.222656 198.238281 L 121.222656 198.238281 L 121.222656 212.238281 L 112.222656 212.238281 Z M 112.222656 198.238281 "/>
<g style="fill:rgb(0%,0%,100%);fill-opacity:1;">
  <use xlink:href="#glyph0-1" x="112.222656" y="209.376953"/>
</g>
<path style="fill:none;stroke-width:1.2;stroke-linecap:butt;stroke-linejoin:miter;stroke:rgb(0%,0%,0%);stroke-opacity:1;stroke-miterlimit:10;" d="M 137.765625 226.976562 L 168.191406 223.6875 "/>
<path style="fill:none;stroke-width:1.2;stroke-linecap:butt;stroke-linejoin:miter;stroke:rgb(0%,0%,0%);stroke-opacity:1;stroke-miterlimit:10;" d="M 168.191406 223.6875 L 184.59375 197.847656 "/>
<path style="fill:none;stroke-width:1.2;stroke-linecap:butt;stroke-linejoin:miter;stroke:rgb(0%,0%,0%);stroke-opacity:1;stroke-miterlimit:10;" d="M 184.59375 197.847656 L 214.636719 203.671875 "/>
<path style="fill:none;stroke-width:1.2;stroke-linecap:butt;stroke-linejoin:miter;stroke:rgb(0%,0%,0%);stroke-opacity:1;stroke-miterlimit:10;" d="M 188.96875 191.359375 L 213.003906 196.023438 "/>
<path style="fill:none;stroke-width:1.2;stroke-linecap:butt;stroke-linejoin:miter;stroke:rgb(0%,0%,0%);stroke-opacity:1;stroke-miterlimit:10;" d="M 174.613281 168.914062 L 184.59375 197.847656 "/>
<path style="fill:none;stroke-width:1.2;stroke-linecap:butt;stroke-linejoin:miter;stroke:rgb(0%,0%,0%);stroke-opacity:1;stroke-miterlimit:10;" d="M 214.636719 203.671875 L 234.703125 180.566406 "/>
<path style="fill:none;stroke-width:1.2;stroke-linecap:butt;stroke-linejoin:miter;stroke:rgb(0%,0%,0%);stroke-opacity:1;stroke-miterlimit:10;" d="M 214.636719 203.671875 L 219.625 218.140625 "/>
<path style="fill:none;stroke-width:1.2;stroke-linecap:butt;stroke-linejoin:miter;stroke:rgb(50%,30%,10%);stroke-opacity:1;stroke-miterlimit:10;" d="M 219.625 218.140625 L 224.613281 232.605469 "/>
<path style="fill:none;stroke-width:1.2;stroke-linecap:butt;stroke-linejoin:miter;stroke:rgb(0%,0%,0%);stroke-opacity:1;stroke-miterlimit:10;" d="M 234.703125 180.566406 L 224.726562 151.632812 "/>
<path style="fill:none;stroke-width:1.2;stroke-linecap:butt;stroke-linejoin:miter;stroke:rgb(0%,0%,0%);stroke-opacity:1;stroke-miterlimit:10;" d="M 226.898438 180.019531 L 218.917969 156.875 "/>
<path style="fill:none;stroke-width:1.2;stroke-linecap:butt;stroke-linejoin:miter;stroke:rgb(0%,0%,0%);stroke-opacity:1;stroke-miterlimit:10;" d="M 234.703125 180.566406 L 249.726562 183.480469 "/>
<path style="fill:none;stroke-width:1.2;stroke-linecap:butt;stroke-linejoin:miter;stroke:rgb(100%,0%,0%);stroke-opacity:1;stroke-miterlimit:10;" d="M 249.726562 183.480469 L 264.75 186.394531 "/>
<path style="fill:none;stroke-width:1.2;stroke-linecap:butt;stroke-linejoin:miter;stroke:rgb(0%,0%,0%);stroke-opacity:1;stroke-miterlimit:10;" d="M 224.726562 151.632812 L 194.683594 145.808594 "/>
<path style="fill:none;stroke-width:1.2;stroke-linecap:butt;stroke-linejoin:miter;stroke:rgb(0%,0%,0%);stroke-opacity:1;stroke-miterlimit:10;" d="M 224.726562 151.632812 L 234.761719 140.082031 "/>
<path style="fill:none;stroke-width:1.2;stroke-linecap:butt;stroke-linejoin:miter;stroke:rgb(100%,0%,0%);stroke-opacity:1;stroke-miterlimit:10;" d="M 234.761719 140.082031 L 244.796875 128.527344 "/>
<path style="fill:none;stroke-width:1.2;stroke-linecap:butt;stroke-linejoin:miter;stroke:rgb(0%,0%,0%);stroke-opacity:1;stroke-miterlimit:10;" d="M 194.683594 145.808594 L 174.613281 168.914062 "/>
<path style="fill:none;stroke-width:1.2;stroke-linecap:butt;stroke-linejoin:miter;stroke:rgb(0%,0%,0%);stroke-opacity:1;stroke-miterlimit:10;" d="M 198.113281 152.839844 L 182.058594 171.324219 "/>
<path style="fill:none;stroke-width:1.2;stroke-linecap:butt;stroke-linejoin:miter;stroke:rgb(0%,0%,0%);stroke-opacity:1;stroke-miterlimit:10;" d="M 174.613281 168.914062 L 145.773438 158.675781 "/>
<path style="fill:none;stroke-width:1.2;stroke-linecap:butt;stroke-linejoin:miter;stroke:rgb(0%,0%,0%);stroke-opacity:1;stroke-miterlimit:10;" d="M 145.773438 158.675781 L 119.785156 174.839844 "/>
<path style=" stroke:none;fill-rule:nonzero;fill:rgb(0%,0%,0%);fill-opacity:1;" d="M 145.773438 158.675781 L 147.855469 127.667969 L 137.117188 128.828125 Z M 145.773438 158.675781 "/>
<path style="fill:none;stroke-width:1.2;stroke-linecap:butt;stroke-linejoin:miter;stroke:rgb(0%,0%,0%);stroke-opacity:1;stroke-miterlimit:10;" d="M 142.484375 128.25 L 167.191406 110.1875 "/>
<path style="fill:none;stroke-width:1.2;stroke-linecap:butt;stroke-linejoin:miter;stroke:rgb(0%,0%,0%);stroke-opacity:1;stroke-miterlimit:10;" d="M 140.707031 120.628906 L 160.472656 106.179688 "/>
<path style="fill:none;stroke-width:1.2;stroke-linecap:butt;stroke-linejoin:miter;stroke:rgb(0%,0%,0%);stroke-opacity:1;stroke-miterlimit:10;" d="M 114.492188 115.882812 L 142.484375 128.25 "/>
<path style="fill:none;stroke-width:1.2;stroke-linecap:butt;stroke-linejoin:miter;stroke:rgb(0%,0%,0%);stroke-opacity:1;stroke-miterlimit:10;" d="M 167.191406 110.1875 L 163.902344 79.757812 "/>
<path style="fill:none;stroke-width:1.2;stroke-linecap:butt;stroke-linejoin:miter;stroke:rgb(0%,0%,0%);stroke-opacity:1;stroke-miterlimit:10;" d="M 163.902344 79.757812 L 135.910156 67.394531 "/>
<path style="fill:none;stroke-width:1.2;stroke-linecap:butt;stroke-linejoin:miter;stroke:rgb(0%,0%,0%);stroke-opacity:1;stroke-miterlimit:10;" d="M 158.195312 85.109375 L 135.796875 75.21875 "/>
<path style="fill:none;stroke-width:1.2;stroke-linecap:butt;stroke-linejoin:miter;stroke:rgb(0%,0%,0%);stroke-opacity:1;stroke-miterlimit:10;" d="M 135.910156 67.394531 L 111.203125 85.453125 "/>
<path style="fill:none;stroke-width:1.2;stroke-linecap:butt;stroke-linejoin:miter;stroke:rgb(0%,0%,0%);stroke-opacity:1;stroke-miterlimit:10;" d="M 111.203125 85.453125 L 114.492188 115.882812 "/>
<path style="fill:none;stroke-width:1.2;stroke-linecap:butt;stroke-linejoin:miter;stroke:rgb(0%,0%,0%);stroke-opacity:1;stroke-miterlimit:10;" d="M 118.691406 87.722656 L 121.320312 112.066406 "/>
<path style=" stroke:none;fill-rule:nonzero;fill:rgb(100%,100%,100%);fill-opacity:1;" d="M 235.796875 121.527344 L 254.796875 121.527344 L 254.796875 135.527344 L 235.796875 135.527344 Z M 235.796875 121.527344 "/>
<g style="fill:rgb(100%,0%,0%);fill-opacity:1;">
  <use xlink:href="#glyph0-2" x="235.796875" y="132.666016"/>
  <use xlink:href="#glyph0-3" x="245.242188" y="132.666016"/>
</g>
<path style=" stroke:none;fill-rule:nonzero;fill:rgb(100%,100%,100%);fill-opacity:1;" d="M 255.75 179.394531 L 274.75 179.394531 L 274.75 193.394531 L 255.75 193.394531 Z M 255.75 179.394531 "/>
<g style="fill:rgb(100%,0%,0%);fill-opacity:1;">
  <use xlink:href="#glyph0-2" x="255.75" y="190.533203"/>
  <use xlink:href="#glyph0-3" x="265.195312" y="190.533203"/>
</g>
<path style=" stroke:none;fill-rule:nonzero;fill:rgb(100%,100%,100%);fill-opacity:1;" d="M 217.613281 225.605469 L 231.613281 225.605469 L 231.613281 239.605469 L 217.613281 239.605469 Z M 217.613281 225.605469 "/>
<g style="fill:rgb(50%,30%,10%);fill-opacity:1;">
  <use xlink:href="#glyph0-4" x="217.613281" y="236.744141"/>
  <use xlink:href="#glyph0-5" x="225.845703" y="236.744141"/>
</g>
</g>
</svg>

<svg xmlns="http://www.w3.org/2000/svg" xmlns:xlink="http://www.w3.org/1999/xlink" width="300pt" height="300pt" viewBox="0 0 300 300"><defs><symbol overflow="visible"><path d="M.594 2.125V-8.47h6V2.126zm.672-.672h4.671V-7.78h-4.67zm0 0"/></symbol><symbol overflow="visible" id="a"><path d="M1.172-8.75h1.594l3.89 7.313V-8.75h1.14V0H6.204L2.328-7.313V0H1.172zm0 0"/></symbol><symbol overflow="visible" id="b"><path d="M4.734-7.953c-.867 0-1.554.324-2.062.97-.5.635-.75 1.51-.75 2.624 0 1.094.25 1.965.75 2.61.508.637 1.195.953 2.062.953.852 0 1.532-.316 2.032-.953.507-.645.765-1.516.765-2.61 0-1.113-.257-1.988-.764-2.624-.5-.645-1.18-.97-2.032-.97zm0-.953c1.22 0 2.192.414 2.922 1.234.74.824 1.11 1.93 1.11 3.313 0 1.376-.37 2.477-1.11 3.298C6.926-.24 5.953.17 4.734.17c-1.23 0-2.214-.41-2.953-1.234C1.04-1.882.673-2.984.673-4.36c0-1.382.367-2.488 1.11-3.312.738-.82 1.722-1.234 2.952-1.234zm0 0"/></symbol><symbol overflow="visible" id="c"><path d="M1.172-8.75H2.36v3.594h4.296V-8.75h1.188V0H6.656v-4.172H2.36V0H1.17zm0 0"/></symbol><symbol overflow="visible" id="d"><path d="M2.36-4.172V-.97h1.906c.632 0 1.1-.128 1.406-.39.312-.27.47-.675.47-1.218 0-.55-.158-.953-.47-1.203-.305-.26-.774-.392-1.406-.392zm0-3.61v2.64h1.75c.58 0 1.015-.108 1.296-.327.282-.218.422-.546.422-.983 0-.445-.14-.78-.422-1-.28-.22-.715-.328-1.297-.328zM1.17-8.75h3.03c.907 0 1.6.188 2.08.563.488.374.734.906.734 1.593 0 .543-.125.977-.375 1.297-.25.313-.617.508-1.093.578.582.126 1.035.388 1.36.782.32.4.484.89.484 1.485 0 .78-.265 1.387-.796 1.812C6.062-.21 5.3 0 4.312 0h-3.14zm0 0"/></symbol><symbol overflow="visible" id="e"><path d="M4.938-5.563c-.125-.062-.262-.11-.407-.14-.135-.04-.292-.063-.468-.063-.605 0-1.074.2-1.406.594-.324.4-.484.97-.484 1.72V0H1.094v-6.563h1.078v1.016c.226-.394.523-.687.89-.875.364-.195.805-.297 1.33-.297.07 0 .147.01.233.017.094.012.19.027.297.047zm0 0"/></symbol></defs><g><path fill="#fff" d="M0 0h300v300H0z"/><path d="M36.422 208.527l28.933-9.976M34.078 201.72l28.93-9.978M64.184 195.145l23.105 20.07M87.29 215.215l14.464-4.988" stroke-width="1.2" stroke="#000" stroke-miterlimit="10" fill="none"/><path d="M101.754 210.227l14.47-4.99M116.223 205.238l10.77 10.867" stroke-width="1.2" stroke="#00f" stroke-miterlimit="10" fill="none"/><path d="M126.992 216.105l10.774 10.872M119.785 174.84l-1.78 15.2" stroke-width="1.2" stroke="#000" stroke-miterlimit="10" fill="none"/><path d="M118.004 190.04l-1.78 15.198" stroke-width="1.2" stroke="#00f" stroke-miterlimit="10" fill="none"/><path d="M112.223 198.238h9v14h-9zm0 0" fill="#fff"/><use xlink:href="#a" x="112.223" y="209.377" fill="#00f"/><path d="M137.766 226.977l30.425-3.29M168.19 223.688l16.404-25.84M184.594 197.848l30.043 5.824M188.97 191.36l24.034 4.663M174.613 168.914l9.98 28.934M214.637 203.672l20.066-23.106M214.637 203.672l4.988 14.47" stroke-width="1.2" stroke="#000" stroke-miterlimit="10" fill="none"/><path d="M219.625 218.14l4.988 14.465" stroke-width="1.2" stroke="#7f4d1a" stroke-miterlimit="10" fill="none"/><path d="M234.703 180.566l-9.976-28.933M226.898 180.02l-7.98-23.145M234.703 180.566l15.024 2.914" stroke-width="1.2" stroke="#000" stroke-miterlimit="10" fill="none"/><path d="M249.727 183.48l15.023 2.915" stroke-width="1.2" stroke="#f00" stroke-miterlimit="10" fill="none"/><path d="M224.727 151.633l-30.043-5.824M224.727 151.633l10.035-11.55" stroke-width="1.2" stroke="#000" stroke-miterlimit="10" fill="none"/><path d="M234.762 140.082l10.035-11.555" stroke-width="1.2" stroke="#f00" stroke-miterlimit="10" fill="none"/><path d="M194.684 145.81l-20.07 23.104M198.113 152.84l-16.054 18.484M174.613 168.914l-28.84-10.238M145.773 158.676l-25.988 16.164" stroke-width="1.2" stroke="#000" stroke-miterlimit="10" fill="none"/><path d="M145.773 158.676l2.082-31.008-10.738 1.16zm0 0"/><path d="M142.484 128.25l24.707-18.063M140.707 120.63l19.766-14.45M114.492 115.883l27.992 12.367M167.19 110.188l-3.288-30.43M163.902 79.758L135.91 67.395M158.195 85.11l-22.398-9.89M135.91 67.395l-24.707 18.058M111.203 85.453l3.29 30.43M118.69 87.723l2.63 24.343" stroke-width="1.2" stroke="#000" stroke-miterlimit="10" fill="none"/><path d="M235.797 121.527h19v14h-19zm0 0" fill="#fff"/><g fill="#f00"><use xlink:href="#b" x="235.797" y="132.666"/><use xlink:href="#c" x="245.242" y="132.666"/></g><path d="M255.75 179.395h19v14h-19zm0 0" fill="#fff"/><g fill="#f00"><use xlink:href="#b" x="255.75" y="190.533"/><use xlink:href="#c" x="265.195" y="190.533"/></g><path d="M217.613 225.605h14v14h-14zm0 0" fill="#fff"/><g fill="#7f4d1a"><use xlink:href="#d" x="217.613" y="236.744"/><use xlink:href="#e" x="225.846" y="236.744"/></g></g></svg>
